X: 974
T: All The Way To Connickmore
R: polka
M: 2/4
K: Amixolydian
[M:2/4]|:A2 dB|dA FE|E2 FG|[M:3/4] BF FE E2|
[M:2/4] A2 dB|dA FE|E2 GE|[M:3/4] DC A,2 A,2:|
[M:2/4]|:E>F ED|EF G2|B,C DC|B,C D2|
E>F ED|EF GA|GE DC|A,2 A,2:|

